!!!OTL: 1405. Der satyrische Jnvalid.
!!!ARE: Europa, Mitteleuropa, Deutschland, Hessen, Marburg, Ziegenhain,
!!    Dill - Kreis; Westfalen, Kreis Wittgenstein
!!!SCT: E1405
!!!TXL: @@DE
!!!YEM: Copyright 1995, estate of Helmut Schaffrath.
**kern	**text
*ICvox	*
*M3/4	*
*k[f#]	*
*G:	*
!LO:TX:a:t=Aus Heſſen-Naſſau und Weſtfalen. Kreis Marburg, Kr. Ʒiegenhain, Dillkreis u. Kr. Wittgenſtein (Weſtfalen).	!
{8d	Ʒum
8d	Sol-
=1	=1
4.g	-dat
8a	bin
8b/	ich
8b/	ge-
=2	=2
4a	-bo-
4g}	-ren,
{8b	muß-
8cc	-te
=3	=3
4.dd	ʒie-
8cc	-hen
8b	in
8dd	das
=4	=4
4a	Feld,
4r}	.
{8a	und
8b/	da
=5	=5
4.cc	hab
8ee	ich
8dd	es
8cc	er-
=6	=6
4b/	-fah-
4a}	-ren,
{8g	wie
8b/	es
=7	=7
(4a	ʒu-
4dd)	-geht
8cc	in
8cc	der
=8	=8
4b	Welt.
4r}	.
==	==
!!!AGN: Staende -, Soldaten - Lied, Invaliden
!!!ONB: ESAC (Essen Associative Code) Database: ERK3
!!!AMT: simple triple
!!!AIN: vox
!!!EED: Helmut Schaffrath
!!!EEV: 1.0
!!!GTL: Staendelieder (Berufslieder). 1. Soldaten- und Kriegslieder. Soldatenlieder seit dem 30jaehr. Kriege.
!!!URL-scan: https://rosdok.uni-rostock.de/mcrviewer/recordIdentifier/rosdok_ppn745177999/iview2/phys_0274.iview2?x=-128.77276441889308&y=658.4327948247083&scale=0.5870222003877485&rotation=0&layout=singlePageLayout
!!!ENC: Anna Maria Matuszewska
!!!EEV: 2024/12/31
*-	*-
